img/brands/8.svg

<svg width="146" height="33" viewBox="0 0 146 33" fill="none" xmlns="http://www.w3.org/2000/svg">
<g clip-path="url(#clip0_106_495)">
<path fill-rule="evenodd" clip-rule="evenodd" d="M143.272 0.135242C144.726 0.135242 145.905 1.28947 145.905 2.71324C145.905 4.13714 144.726 5.29136 143.272 5.29136C141.817 5.29136 140.639 4.13714 140.639 2.71324C140.639 1.28947 141.817 0.135242 143.272 0.135242ZM4.92746 5.73493C4.11503 4.0246 3.40001 2.91098 2.78269 2.38595C2.16512 1.8689 1.24712 1.59846 0.0446777 1.58247V0.675617H6.49549H12.9707V1.58247C11.0127 1.61431 9.85899 1.89275 9.50148 2.40979C9.14401 2.92684 9.35532 4.04058 10.1352 5.73493L18.8689 25.5671L26.0185 7.38957C26.9771 5.01099 27.2859 3.452 26.9609 2.72806C26.6358 1.99613 25.4743 1.61431 23.4756 1.58247V0.675617H28.3503H33.2493V1.58247C32.1931 1.59846 31.3805 1.8689 30.8363 2.38595C30.2919 2.91098 29.6583 4.0246 28.9433 5.73493L17.9916 32.7902H17.6096H17.2279L4.92746 5.73493ZM35.0691 32.2812V31.3744C36.8485 31.3426 38.0021 31.0641 38.5382 30.547C39.0826 30.0298 39.3507 28.9163 39.3507 27.2217V5.73493C39.3507 4.04058 39.0826 2.92684 38.5382 2.40979C38.0021 1.89275 36.8485 1.61431 35.0691 1.58247V0.675617H44.3309H60.9454L61.0185 4.15196L61.1162 7.62831H59.9462C59.6781 5.51231 59.0606 4.12798 58.0938 3.47585C57.1269 2.82345 55.1852 2.49732 52.2848 2.49732H46.0616C45.3628 2.49732 44.8998 2.60856 44.6722 2.83144C44.4366 3.06219 44.3228 3.51555 44.3228 4.19966V14.7322H51.3507C53.5116 14.7322 54.9576 14.4458 55.6808 13.8732C56.4121 13.2923 56.8994 12.0672 57.1351 10.1898H58.2564V15.7107V21.2315H57.1351C56.8994 19.3543 56.4121 18.129 55.6808 17.5483C54.9576 16.9757 53.5116 16.6893 51.3507 16.6893H44.3228V28.2718C44.3228 29.1389 44.4773 29.7197 44.7778 30.0139C45.0784 30.3083 45.6715 30.4594 46.5653 30.4594H51.1637C54.5923 30.4594 57.005 30.0617 58.4107 29.2741C59.816 28.4786 61.0837 26.7921 62.229 24.2147H63.5616L62.4892 28.248L61.3923 32.2812H44.3309H35.0691ZM71.7427 25.3603C71.7427 27.8105 72.0433 29.4253 72.6365 30.181C73.2295 30.9448 74.505 31.3426 76.4549 31.3744V32.2812H70.6703H64.8859V31.3744C66.8356 31.3426 68.1113 30.9448 68.7042 30.189C69.2972 29.4253 69.5979 27.8184 69.5979 25.3603V3.96105C68.9154 3.22912 68.3387 2.71208 67.8593 2.4018C67.0549 1.8689 66.0474 1.59846 64.8369 1.58247V0.675617H69.1024H73.3594L91.8994 23.4352V7.59646C91.8994 5.15434 91.5989 3.54739 91.0058 2.78362C90.4126 2.01212 89.1371 1.61431 87.1873 1.58247V0.675617H92.972H98.7565V1.58247C96.8065 1.61431 95.5311 2.01212 94.938 2.76777C94.345 3.53153 94.0443 5.13848 94.0443 7.59646V32.7902H93.6625H93.2806L71.7427 6.35548V25.3603ZM105.037 27.2217V5.73493C105.037 4.04058 104.736 2.92684 104.143 2.40979C103.55 1.89275 102.275 1.61431 100.325 1.58247V0.675617H107.515H114.721V1.58247C112.771 1.61431 111.496 1.89275 110.903 2.40979C110.31 2.92684 110.009 4.04058 110.009 5.73493V27.2217C110.009 28.9163 110.31 30.0298 110.903 30.547C111.496 31.0641 112.771 31.3426 114.721 31.3744V32.2812H107.531H100.325V31.3744C102.275 31.3426 103.55 31.0641 104.159 30.5311C104.744 30.0219 105.037 28.9163 105.037 27.2217ZM137.389 10.1581C136.852 7.76353 135.722 5.79861 134.008 4.26334C132.294 2.72806 130.377 1.95643 128.248 1.95643C126.81 1.95643 125.624 2.37795 124.706 3.21327C123.788 4.05644 123.325 5.13049 123.325 6.43502C123.325 7.70784 123.755 8.81373 124.609 9.76815C125.47 10.715 127.062 11.8366 129.394 13.1492C133.391 15.3846 136.096 17.2698 137.502 18.8131C138.916 20.3327 139.623 22.1386 139.623 24.2147C139.623 26.7683 138.655 28.8525 136.731 30.4833C134.804 32.1142 132.343 32.9336 129.345 32.9336C127.412 32.9336 125.259 32.4641 122.894 31.5334C122.179 31.2549 121.578 31.2231 121.091 31.43C120.595 31.6368 120.327 32.0504 120.278 32.6551L120.254 32.9336H119.206L117.727 22.7987H118.848C119.848 25.5511 121.204 27.6433 122.927 29.0753C124.649 30.5152 126.648 31.231 128.915 31.231C130.596 31.231 131.978 30.7379 133.057 29.7436C134.138 28.7491 134.674 27.4604 134.674 25.8932C134.674 24.3738 134.163 23.0453 133.131 21.9077C132.115 20.7781 130.206 19.4338 127.412 17.8745C124.178 16.0766 121.993 14.5015 120.847 13.1492C119.701 11.7969 119.133 10.1183 119.133 8.11351C119.133 5.75091 119.953 3.81783 121.594 2.30641C123.236 0.802845 125.34 0.0471992 127.915 0.0471992C129.467 0.0471992 131.295 0.484577 133.408 1.35173C134.203 1.67786 134.853 1.74953 135.373 1.57448C135.885 1.39143 136.234 0.977774 136.405 0.325638L136.478 0.0471992H137.502L138.647 10.1581H137.389ZM142.041 4.22866H142.649V2.97453H143.36L144.038 4.22866H144.755L144.04 2.90389C144.822 2.56435 144.759 1.10887 143.686 1.10887H142.649H142.041V4.22866ZM143.614 2.37795H142.649V1.70519H143.614C144.053 1.70519 144.024 2.37795 143.614 2.37795ZM143.272 0.451706C144.548 0.451706 145.581 1.46414 145.581 2.71324C145.581 3.96234 144.548 4.9749 143.272 4.9749C141.997 4.9749 140.962 3.96234 140.962 2.71324C140.962 1.46414 141.997 0.451706 143.272 0.451706Z" fill="#231F20"/>
</g>
<defs>
<clipPath id="clip0_106_495">
<rect width="146" height="33" fill="white"/>
</clipPath>
</defs>
</svg>

<svg width="146" height="33" fill="none" xmlns="http://www.w3.org/2000/svg"><g clip-path="url(#a)"><path fill-rule="evenodd" clip-rule="evenodd" d="M143.272.135c1.454 0 2.633 1.154 2.633 2.578s-1.179 2.578-2.633 2.578c-1.455 0-2.633-1.154-2.633-2.578s1.178-2.578 2.633-2.578ZM4.927 5.735C4.115 4.025 3.4 2.91 2.783 2.385c-.618-.516-1.536-.787-2.738-.803V.676H12.97v.906c-1.958.032-3.112.31-3.47.828-.357.517-.146 1.63.634 3.325l8.734 19.832 7.15-18.177c.958-2.379 1.267-3.938.942-4.662-.325-.732-1.487-1.114-3.485-1.146V.676H33.25v.906c-1.057.016-1.87.287-2.414.804-.544.525-1.178 1.639-1.893 3.349L17.992 32.79h-.764L4.928 5.735ZM35.07 32.28v-.907c1.78-.031 2.933-.31 3.47-.827.544-.517.812-1.63.812-3.325V5.735c0-1.694-.268-2.808-.813-3.325-.536-.517-1.69-.796-3.469-.828V.676h25.876l.074 3.476.097 3.476h-1.17c-.268-2.116-.885-3.5-1.852-4.152-.967-.653-2.909-.979-5.81-.979h-6.222c-.7 0-1.162.112-1.39.334-.235.231-.35.685-.35 1.369v10.532h7.029c2.16 0 3.607-.286 4.33-.859.731-.58 1.218-1.806 1.454-3.683h1.121V21.23h-1.12c-.237-1.877-.724-3.102-1.455-3.683-.723-.572-2.17-.859-4.33-.859h-7.028v11.583c0 .867.154 1.448.455 1.742.3.294.894.445 1.787.445h4.599c3.428 0 5.841-.397 7.247-1.185 1.405-.795 2.673-2.482 3.818-5.06h1.333l-1.073 4.034-1.097 4.033H35.07Zm36.674-6.92c0 2.45.3 4.064.894 4.82.593.764 1.868 1.162 3.818 1.193v.907H64.886v-.907c1.95-.031 3.225-.43 3.818-1.185.593-.764.894-2.37.894-4.829V3.961c-.683-.732-1.26-1.249-1.739-1.56-.804-.532-1.812-.803-3.022-.819V.676H73.359l18.54 22.76V7.595c0-2.442-.3-4.049-.893-4.812-.593-.772-1.869-1.17-3.819-1.202V.676h11.57v.906c-1.95.032-3.226.43-3.819 1.186-.593.764-.894 2.37-.894 4.828V32.79h-.763L71.743 6.355V25.36Zm33.294 1.86V5.736c0-1.694-.301-2.808-.894-3.325-.593-.517-1.868-.796-3.818-.828V.676h14.396v.906c-1.95.032-3.225.31-3.818.828-.593.517-.894 1.63-.894 3.325v21.487c0 1.694.301 2.808.894 3.325.593.517 1.868.796 3.818.827v.907h-14.396v-.907c1.95-.031 3.225-.31 3.834-.843.585-.51.878-1.615.878-3.31Zm32.352-17.063c-.537-2.394-1.667-4.36-3.381-5.895-1.714-1.535-3.631-2.307-5.76-2.307-1.438 0-2.624.422-3.542 1.257-.918.843-1.381 1.917-1.381 3.222 0 1.273.43 2.379 1.284 3.333.861.947 2.453 2.069 4.785 3.381 3.997 2.236 6.702 4.12 8.108 5.664 1.414 1.52 2.121 3.326 2.121 5.402 0 2.553-.968 4.637-2.892 6.268-1.927 1.631-4.388 2.45-7.386 2.45-1.933 0-4.086-.469-6.451-1.4-.715-.278-1.316-.31-1.803-.103-.496.207-.764.62-.813 1.225l-.024.279h-1.048l-1.479-10.135h1.121c1 2.752 2.356 4.844 4.079 6.276 1.722 1.44 3.721 2.156 5.988 2.156 1.681 0 3.063-.493 4.142-1.487 1.081-.995 1.617-2.284 1.617-3.85 0-1.52-.511-2.849-1.543-3.986-1.016-1.13-2.925-2.474-5.719-4.034-3.234-1.797-5.419-3.372-6.565-4.725-1.146-1.352-1.714-3.03-1.714-5.035 0-2.363.82-4.296 2.461-5.808C123.236.803 125.34.047 127.915.047c1.552 0 3.38.438 5.493 1.305.795.326 1.445.398 1.965.222.512-.183.861-.596 1.032-1.248l.073-.279h1.024l1.145 10.111h-1.258Zm4.652-5.93h.608V2.976h.711l.678 1.254h.717l-.715-1.325c.782-.34.719-1.795-.354-1.795h-1.645v3.12Zm1.573-1.85h-.965v-.673h.965c.439 0 .41.673 0 .673Zm-.342-1.926c1.276 0 2.309 1.012 2.309 2.261 0 1.25-1.033 2.262-2.309 2.262-1.275 0-2.31-1.013-2.31-2.262s1.035-2.261 2.31-2.261Z" fill="#231F20"/></g><defs><clipPath id="a"><path fill="#fff" d="M0 0h146v33H0z"/></clipPath></defs></svg>
